assets/Mans shoe/Flat/mans_shoe_flat.svg

<svg width="32" height="32" viewBox="0 0 32 32" fill="none" xmlns="http://www.w3.org/2000/svg">
<path d="M2 18.7V27.5L10 26.39H11.4C12.96 26.39 14.22 27.65 14.22 29.21H30V26.4C30 23.44 27.89 20.9 24.99 20.35C24.99 20.35 19.16 19.64 16 16.99C15.25 16.36 14.32 16 13.34 16H4.7C3.21 16 2 17.21 2 18.7Z" fill="#A56953"/>
<path d="M16.8979 16.8321C17.1674 17.1015 17.1674 17.5385 16.8979 17.8079L15.2579 19.4479C14.9885 19.7174 14.5515 19.7174 14.2821 19.4479C14.0126 19.1785 14.0126 18.7415 14.2821 18.4721L15.9221 16.8321C16.1915 16.5626 16.6285 16.5626 16.8979 16.8321ZM19.8779 18.412C20.1474 18.6815 20.1474 19.1184 19.8779 19.3879L18.2379 21.0279C17.9684 21.2974 17.5315 21.2974 17.262 21.0279C16.9926 20.7584 16.9926 20.3215 17.262 20.052L18.902 18.412C19.1715 18.1426 19.6084 18.1426 19.8779 18.412ZM2 26.4H9.98V29.22H2V26.4Z" fill="#6D4534"/>
</svg>

<svg xmlns="http://www.w3.org/2000/svg" width="32" height="32" fill="none"><path fill="#A56953" d="M2 18.7v8.8l8-1.11h1.4c1.56 0 2.82 1.26 2.82 2.82H30V26.4c0-2.96-2.11-5.5-5.01-6.05 0 0-5.83-.71-8.99-3.36a4.13 4.13 0 0 0-2.66-.99H4.7C3.21 16 2 17.21 2 18.7Z"/><path fill="#6D4534" d="M16.898 16.832a.69.69 0 0 1 0 .976l-1.64 1.64a.69.69 0 1 1-.976-.976l1.64-1.64a.69.69 0 0 1 .976 0Zm2.98 1.58a.69.69 0 0 1 0 .976l-1.64 1.64a.69.69 0 1 1-.976-.976l1.64-1.64a.69.69 0 0 1 .976 0ZM2 26.4h7.98v2.82H2V26.4Z"/></svg>
